X: 1512
T: Niçin Mahzun Bakarsın
C: Hacı Ârif Bey
O: Turkey
F: http://compmusic.upf.edu/node/140
N: muhayyer--sarki--sofyan--nicin_mahzun--haci_arif_bey
N: makam= muhayyer
N: form= sarki
N: usul= sofyan = 4/4
M: 4/4
L: 1/16
K: C _2/4B ^3/4f  
Q: 1/4=75
%%MIDI tuningsystem comma53
a4 g2a2 a4 a4  | g2f2 e2d2 agfg a4  | \
w:  *  Ni çin  mah zûn   |  ba *  *  *  kar *  *  *  sın   | 
g4 a2bd' c'2ba b2ag  | 
w:  sen  ba *  *  na  *  *  öy  | 
a2gf g2fe a2{b}ag =f3/2e/d2  | d3c' c'bba ag2f (3agffe  | 
w:  le   |  sen  *  ba *  *  *  na  *  *  öy  | 
efag gffe e3g fefg  | a4 g2a2 a4 a4  | \
w:  le   *  *  *  *  *  *  *  *  *  SAZ  |  *  Ne dir  küs kün  | 
gabc' baag g=ffe f3/2e/d2  | 
w:  lü *  *  *  ğün   | 
z2cd e=fed d3c fede  | c2d4{e}dc cBBA A4  | 
w:  ey  *  *  *  *  *  mah  *  söy  |  le   | 
A3/2G/AB cde=f eddc cBBA  | ABdc cBBA A3g fefg  | 
w:  ey  *  *  *  *  *  *  *  mah  *  *  *  söy  |  le   *  *  *  *  *  *  *  *  *  SAZ  | 
a4 g2a2 a4 a4  | gabc' baag g=ffe f3/2e/d2  | \
w:  *  Ne dir  küs kün  |  lü *  *  *  ğün   | 
z2cd e=fed d3c fede  | 
w:  ey  *  *  *  *  *  mah  *  söy  | 
c2d4{e}dc cBBA A4  | A3/2G/AB cde=f eddc cBBA  | 
w:  le   |  ey  *  *  *  *  *  *  *  mah  *  *  *  söy  | 
ABdc ABBA A3=f edcd  | e4 d2e2 e4 e4  | \
w:  le   *  *  *  *  *  *  *  *  *  SAZ  |  *  Mü ked der  dur  | 
e2de fgab agfe d4  | 
w:  *  mak *  *  *  *  *  lı *  *  *  ğın   | 
d3c' c'bba ag2f (3agffe  | e2de f2ef g2ag f3/2e/d2  | 
w:  lâ *  yık  *  *  *  mı  *  *  böy  |  le   | 
d3c' c'bba ag2f (3agffe  | efag gffe e3g fefg  | 
w:  lâ *  yık  *  *  *  mı  *  *  böy  |  le   *  *  *  *  *  *  *  *  *  SAZ  | 
a4 g2a2 a4 a4  | gabc' baag g=ffe f3/2e/d2  | \
w:  *  Ne dir  küs kün  |  lü *  *  *  ğün   | 
z2cd e=fed d3c fede  | 
w:  ey  *  *  *  *  *  mah  *  söy  | 
c2d4{e}dc cBBA A4  | A3/2G/AB cde=f eddc cBBA  | 
w:  le   |  ey  *  *  *  *  *  *  *  mah  *  *  *  söy  | 
ABdc cBBA A3g fefg  | a4 g2a2 a4 a4  | \
w:  le   *  *  *  *  *  *  *  *  *  SAZ  |  *  Ne dir  küs kün  | 
gabc' baag g=ffe f3/2e/d2  | 
w:  lü *  *  *  ğün   | 
z2cd e=fed d3c fede  | c2d4{e}dc cBBA A4  | 
w:  ey  *  *  *  *  *  mah  *  söy  |  le   | 
A3/2G/AB cde=f eddc cBBA  | ABdc ABBA A3|
w:  ey  *  *  *  *  *  *  *  mah  *  *  *  söy  |  le    | 


